src/svg/symbols/aaaLogo-for_SVG.svg

<?xml version="1.0" encoding="UTF-8"?>
<!DOCTYPE svg PUBLIC "-//W3C//DTD SVG 1.1//EN" "http://www.w3.org/Graphics/SVG/1.1/DTD/svg11.dtd">
<svg version="1.1" xmlns="http://www.w3.org/2000/svg" xmlns:xlink="http://www.w3.org/1999/xlink" width="100%" height="100%" viewBox="0 0 775 170" xml:space="preserve">
<g id="logo_alex">
  <defs>
    <mask id="aab">
      <path fill="#fff" d="M647 123s-7.83 11.78-11.4 17.95h90.3c-3.9-6.4-7.2-12-11-18.2L647 123zm0 0"/>
    </mask>
    <mask id="aaa">
      <path fill="#fff"
            d="M773.4 141.05c-22.8-39.9-46-79.7-68.6-119.1-23.1 39.8-46.3 79.5-69.2 119l22.4.05 13.79-24.09c10.77-18.57 21.14-36.4 32.01-55.06 15.6 27.3 30.6 53.3 45.5 79.2h24.1zm0 0"/>
    </mask>
    <mask id="aac">
      <path fill="#fff"
            d="M494.6 50.4c23 39 45.5 78.3 68.5 117.9 22.7-39.7 44.8-78.9 67.3-117.9H494.6zm33.4 19h69.3c-11.8 21-21.95 39.94-34.05 61.24-12.2-21.2-23.35-40.24-35.25-61.24zm0 0"/>
    </mask>
    <mask id="aae">
      <path fill="#fff" d="M672.4 47.8h-26.2c-17.6 31-35 61.9-52.7 93.2h26.2c17.3-30.7 34.8-61.6 52.7-93.2zm0 0"/>
    </mask>
    <mask id="aad">
      <path fill="#fff" d="M687.1 21.6h-26.2c-1.9 3.7-4.7 9-6.8 13H680c1.8-3.3 4.7-8.7 7.1-13zm0 0"/>
    </mask>
    <mask id="aaf">
      <path fill="#fff"
            d="M532.1 140.95c-22.9-40-45.3-79.2-67.5-118.1h-26.2c22.7 39.8 45.1 79 67.5 118.1h26.2zm0 0"/>
    </mask>
    <mask id="aah">
      <path fill="#fff"
            d="M409 1s-40.52 71-68.6 120.08l-.91 1.6L350 141h7c15.18-26.48 43.01-74.71 50.57-87.82L423 26 409 1zm0 0"/>
    </mask>
    <mask id="aag">
      <path fill="#fff"
            d="M383.1 140.85c36.1.1 71 .1 107.2.1-27.2-46.8-53.8-92.7-80.9-139.4-23.51 41.02-69.73 122.37-69.73 122.37L350 141l5.8-.05c17.7-30.8 35.4-61.6 53.7-93.5 14.2 24.6 27.6 47.6 41.5 71.6h-54.9c-4.3 7.2-8.5 14.2-13 21.8zm0 0"/>
    </mask>
    <mask id="aaj">
      <path fill="#fff"
            d="M316.81 89.8s25.89-44.95 39.29-68.05h-25.9c-9 15.1-26.37 45.57-26.37 45.57l-13 22.46s-28.63 50.47-43.13 76.07h25.5c10-17.2 30.63-53.6 30.63-53.6l12.98-22.45zm0 0"/>
    </mask>
    <mask id="aal">
      <path fill="#fff"
            d="M222.92 105.96c-.59 1.06-2.32 4.98-2.92 6.04l-12-18c.44-.8 2.7-4.06 3.13-4.83 3.63-6.6 6.82-12.43 10.24-18.57L176 71c.22.37-12-20-12-20l90.07-.4c-10.48 19.47-20.7 36.97-31.15 55.36zm0 0"/>
    </mask>
    <mask id="aak">
      <path fill="#fff"
            d="M255.17 92.6c-7 13-14.1 24.6-21.8 37.9-4.4-7.5-11.9-20.2-11.9-20.2L186 51l-21.03-.4c22.9 40 45.4 78.2 68.4 117.7 14.7-25.7 29.16-49.7 43.66-75.7h-21.86zm0 0"/>
    </mask>
    <mask id="aam">
      <path fill="#fff"
            d="M109.15 22.75c22.8 39.8 45.2 79.2 67.5 118.2h26.2c-22.8-39.8-45.2-79.2-67.5-118.2h-26.2zm0 0"/>
    </mask>
    <mask id="aan">
      <path fill="#fff"
            d="M68.48 118.42c-4.3 7.2-9.28 15.08-13.68 22.48h107c-27-46.6-53.6-92.4-80.7-139.2-26.9 46.9-53.3 92.9-80 139.5h27.2c17.6-30.7 34.85-60.37 53.15-92.27 14.2 24.5 26.68 45.56 40.58 69.46-19 0-35.55.03-53.55.03zm0 0"/>
    </mask>
  </defs>

  <g id="letters">
    <g>
      <g>
        <g mask="url(#aaa)" fill="">
          <path d="M704 21s-45.6 80.45-68.5 119.95l32.8-18.2C680.3 102.05 716 42 716 42l-12-21zm0 0"/>
          <path d="M773.4 141.05c-22.8-39.9-68.6-119.1-68.6-119.1l-1 39.9s30.6 53.3 45.5 79.2h24.1zm0 0"/>
        </g>
        <path d="M635 141l91.9-.05c-3.9-6.4-7.2-12-11-18.2l-46.71.24L646 123l-11 18zm0 0"
              mask="url(#aab)"/>
      </g>
      <g>
        <g mask="url(#aac)">
          <path
            d="M563.1 169.3c-3.56-6.13-7.11-13.26-10.65-19.37l10.75-19.39.05.1c12.1-21.3 22.25-40.24 34.05-61.24h-.2l10.53-19h23.77c-22.5 39-45.6 79.2-68.3 118.9zm0 0"/>
          <path d="M620 69H505c-3.73-6.38-7.25-12.64-11-19h138c-3.67 6.36-12 19-12 19zm0 0"/>
          <path
            d="M529.53 72.38c11.48 20.22 22.3 38.73 34.12 59.26l.11-.2 10.76 18.55c-3.66 6.43-7.33 12.86-11.02 19.31-23-39.6-45.5-78.9-68.5-117.9h22.36l12.17 20.98zm0 0"/>
        </g>
      </g>
      <g>
        <path d="M687.1 21.6h-26.2c-1.9 3.7-4.7 9-6.8 13H680c1.8-3.3 4.7-8.7 7.1-13zm0 0"
              mask="url(#aad)"/>
        <path d="M672.4 47.8h-26.2c-17.6 31-35 61.9-52.7 93.2h26.2c17.3-30.7 34.8-61.6 52.7-93.2zm0 0"
              mask="url(#aae)"/>
      </g>
      <g>
        <path
          d="M532.1 140.95c-22.9-40-45.3-79.2-67.5-118.1h-26.2c22.7 39.8 45.1 79 67.5 118.1h26.2zm0 0"
          mask="url(#aaf)"/>
      </g>
      <g>

        <g mask="url(#aag)">
          <path d="M490.8 140.9C463.8 94.3 409 1 409 1v46l40.05 68.96L464 141l26.8-.1zm0 0"/>
          <path d="M396 119c-4.3 7.2-8.8 14.5-13.2 21.9l108.2.1-39-22h-56zm0 0"/>
        </g>
        <path
          d="M409 1s-40.52 71-68.6 120.08l-.91 1.6L350 141h7c15.18-26.48 43.01-74.71 50.57-87.82L423 26 409 1zm0 0"
          mask="url(#aah)"/>
      </g>
    </g>
    <g>
      <g>
        <clipPath id="aai">
          <path fill="#fff"
                d="M316.81 89.8l-12.98-22.48S296.4 54.75 293 48.95h-25.8c8 14 23.63 40.83 23.63 40.83l13 22.47s11.87 19.8 16.97 28.7h18l7.2.05c-7.7-13.1-29.19-51.2-29.19-51.2zm0 0"/>
        </clipPath>
        <path
          d="M316.81 89.8l-12.98-22.48S296.4 54.75 293 48.95h-25.8c8 14 23.63 40.83 23.63 40.83l13 22.47s11.87 19.8 16.97 28.7h18l7.2.05c-7.7-13.1-29.19-51.2-29.19-51.2zm0 0"
          clip-path="url(#aai)"/>
        <path
          d="M316.81 89.8s25.89-44.95 39.29-68.05h-25.9c-9 15.1-26.37 45.57-26.37 45.57l-13 22.46s-28.63 50.47-43.13 76.07h25.5c10-17.2 30.63-53.6 30.63-53.6l12.98-22.45zm0 0"
          mask="url(#aaj)"/>
      </g>
      <g>
        <g mask="url(#aak)">
          <path d="M255.17 92.6c-7 13-25.17 42.4-25.17 42.4v39s33.5-55 48-81l-22.83-.4zm0 0"/>
          <path d="M233.37 130.5l-11.9-20.2L197 69l-34-20c22.9 40 70.37 119.3 70.37 119.3v-37.8zm0 0"/>
        </g>
        <g mask="url(#aal)">
          <path d="M219 114l36.83-63.83-23.15.13L208 94l11 20zm0 0"/>
          <path d="M221 71s-23.18-.31-23 0l-35-21h93l-35 21zm0 0"/>
        </g>
      </g>
      <g>
        <path
          d="M109.15 22.75c22.8 39.8 45.2 79.2 67.5 118.2h26.2c-22.8-39.8-45.2-79.2-67.5-118.2h-26.2zm0 0"
          mask="url(#aam)"/>
      </g>
      <g>
        <g mask="url(#aan)">
          <path
            d="M81.1 1.7s-53.3 92.9-80 139.5h27.2C42.9 115.73 69.86 69 78.62 53.83 80.42 50.71 95 25 95 25L81.1 1.7zm0 0"/>
          <path d="M161.8 140.9C134.8 94.3 81 1 81 1v47l54 93 26.8-.1zm0 0"/>
          <path d="M68 118c-4.3 7.2-8.8 15.5-13.2 22.9l108.2.1-39-23H68zm0 0"/>
        </g>
      </g>
    </g>
  </g>
  </g>
</svg>

<?xml version="1.0" encoding="UTF-8"?>
<!DOCTYPE svg PUBLIC "-//W3C//DTD SVG 1.1//EN" "http://www.w3.org/Graphics/SVG/1.1/DTD/svg11.dtd">
<svg version="1.1" xmlns="http://www.w3.org/2000/svg" xmlns:xlink="http://www.w3.org/1999/xlink" width="100%" height="100%" viewBox="0 0 775 170" xml:space="preserve">
<g id="logo_alex">
    <g id="aloia">
        <g id="a3">
            <mask id="mask_a3_1">
                <path id="a3_m" stroke="none" fill="#fff" d="M 647,123 C 647,123 639.17,134.78 635.6,140.95 L 725.9,140.95 C 722,134.55 718.7,128.95 714.9,122.75 L 647,123 Z M 647,123" />
            </mask>
            <mask id="mask_a3_2">
                <path id="a3_m2" stroke="none" fill="#fff" d="M 773.4,141.05 C 750.6,101.15 727.4,61.35 704.8,21.95 681.7,61.75 658.5,101.45 635.6,140.95 L 658,141 671.79,116.91 C 682.56,98.34 692.93,80.51 703.8,61.85 719.4,89.15 734.4,115.15 749.3,141.05 756.6,141.05 765.3,141.05 773.4,141.05 Z M 773.4,141.05" />
            </mask>
            <g id="a3_2" mask='url(#mask_a3_2)'>
                <path id="a3_2_1" stroke="none" fill="rgb(83, 83, 83)" d="M 704,21 C 704,21 658.4,101.45 635.5,140.95 L 668.3,122.75 C 680.3,102.05 716,42 716,42 L 704,21 Z M 704,21" />
                <path id="a3_2_2" stroke="none" fill="rgb(83, 83, 83)" d="M 773.4,141.05 C 750.6,101.15 704.8,21.95 704.8,21.95 L 703.8,61.85 C 703.8,61.85 734.4,115.15 749.3,141.05 756.6,141.05 765.3,141.05 773.4,141.05 Z M 773.4,141.05" />
            </g>
            <g id="a3_1" mask='url(#mask_a3_1)'>
                <path id="a3_1_1" stroke="none" fill="rgb(83, 83, 83)" d="M 635,141 L 726.9,140.95 C 723,134.55 719.7,128.95 715.9,122.75 L 669.19,122.99 646,123 635,141 Z M 635,141" />
            </g>
        </g>
        <g id="o">
            <mask id="mask_o1">
                <path id="o_m" stroke="none" fill="#fff" d="M 494.6,50.4 C 517.6,89.4 540.1,128.7 563.1,168.3 585.8,128.6 607.9,89.4 630.4,50.4 584.8,50.4 540.3,50.4 494.6,50.4 Z M 528,69.4 C 551.9,69.4 573.5,69.4 597.3,69.4 585.5,90.4 575.35,109.34 563.25,130.64 551.05,109.44 539.9,90.4 528,69.4 Z M 528,69.4" />
            </mask>
            <g id="o1" mask='url(#mask_o1)'>
                    <path id="o_1" stroke="none" fill="rgb(83, 83, 83)" d="M 563.1,169.3 C 559.54,163.17 555.99,156.04 552.45,149.93 L 563.2,130.54 563.25,130.64 C 575.35,109.34 585.5,90.4 597.3,69.4 L 597.1,69.4 607.63,50.4 631.4,50.4 C 608.9,89.4 585.8,129.6 563.1,169.3 Z M 563.1,169.3" />
                    <path id="o_2" stroke="none" fill="rgb(83, 83, 83)" d="M 620,69 L 597,69 528,69 505,69 C 501.27,62.62 497.75,56.36 494,50 L 632,50 C 628.33,56.36 620,69 620,69 Z M 620,69" />
                    <path id="o_3" stroke="none" fill="rgb(83, 83, 83)" d="M 529.53,72.38 C 541.01,92.6 551.83,111.11 563.65,131.64 L 563.76,131.44 574.52,149.99 C 570.86,156.42 567.19,162.85 563.5,169.3 540.5,129.7 518,90.4 495,51.4 L 517.36,51.4 529.53,72.38 Z M 529.53,72.38" />
                </g>
            </g>
        <g id="i">
            <mask id="mask_i1_1">
                <path id="i_1_m" stroke="none" fill="rgb(255, 255, 255)" d="M 672.4,47.8 L 646.2,47.8 C 628.6,78.8 611.2,109.7 593.5,141 L 619.7,141 C 637,110.3 654.5,79.4 672.4,47.8 Z M 672.4,47.8" />
            </mask>
            <mask id="mask_i1_2">
                <path id="i_1_m2" stroke="none" fill="rgb(255, 255, 255)" d="M 687.1,21.6 L 660.9,21.6 C 659,25.3 656.2,30.6 654.1,34.6 L 680,34.6 C 681.8,31.3 684.7,25.9 687.1,21.6 Z M 687.1,21.6" />
            </mask>
            <g id="i_2" mask='url(#mask_i1_2)'>
                <path id="i_2_1" stroke="none" fill="rgb(83, 83, 83)" d="M 687.1,21.6 L 660.9,21.6 C 659,25.3 656.2,30.6 654.1,34.6 L 680,34.6 C 681.8,31.3 684.7,25.9 687.1,21.6 Z M 687.1,21.6" />
            </g>
            <g id="i_1" mask='url(#mask_i1_1)'>
                <path id="i_1_1" stroke="none" fill="rgb(83, 83, 83)" d="M 672.4,47.8 L 646.2,47.8 C 628.6,78.8 611.2,109.7 593.5,141 L 619.7,141 C 637,110.3 654.5,79.4 672.4,47.8 Z M 672.4,47.8" />
            </g>
        </g>
        <g id="l2">
            <mask id="mask_l2">
                <path id="l2_m" stroke="none" fill="rgb(255, 255, 255)" d="M 532.1,140.95 C 509.2,100.95 486.8,61.75 464.6,22.85 455.7,22.85 447.3,22.85 438.4,22.85 461.1,62.65 483.5,101.85 505.9,140.95 514.6,140.95 522.9,140.95 532.1,140.95 Z M 532.1,140.95" />
            </mask>
            <g id="l2_1" mask='url(#mask_l2)'>
                <path id="l2_1_p1" stroke="none" fill="rgb(83, 83, 83)" d="M 532.1,140.95 C 509.2,100.95 486.8,61.75 464.6,22.85 455.7,22.85 447.3,22.85 438.4,22.85 461.1,62.65 483.5,101.85 505.9,140.95 514.6,140.95 522.9,140.95 532.1,140.95 Z M 532.1,140.95" />
            </g>
        </g>
        <g id="a2">
            <mask id="mask_a2_1">
                <path id="a2_1_m" stroke="none" fill="rgb(255, 255, 255)" d="M 409,1 C 409,1 368.48,72 340.4,121.08 L 339.49,122.68 350,141 357,141 C 372.18,114.52 400.01,66.29 407.57,53.18 L 423,26 409,1 Z M 409,1" />
            </mask>
            <mask id="mask_a2_2">
                <path id="a2_2_m" stroke="none" fill="rgb(255, 255, 255)" d="M 383.1,140.85 C 419.2,140.95 454.1,140.95 490.3,140.95 463.1,94.15 436.5,48.25 409.4,1.55 385.89,42.57 339.67,123.92 339.67,123.92 L 350,141 355.8,140.95 C 373.5,110.15 391.2,79.35 409.5,47.45 423.7,72.05 437.1,95.05 451,119.05 L 396.1,119.05 C 391.8,126.25 387.6,133.25 383.1,140.85 Z M 383.1,140.85" />
            </mask>
            <g id="a2_2" mask='url(#mask_a2_2)'>
                <path id="a_2_2" stroke="none" fill="rgb(83, 83, 83)" d="M 490.8,140.9 C 463.8,94.3 409,1 409,1 L 409,47 449.05,115.96 464,141 490.8,140.9 Z M 490.8,140.9" />
                <path id="a_2_0" stroke="none" fill="rgb(83, 83, 83)" d="M 396,119 C 391.7,126.2 387.2,133.5 382.8,140.9 L 491,141 452,119 C 452,119 414,119 396,119 Z M 396,119" />
            </g>
            <g id="a2_1" mask='url(#mask_a2_1)'>
                <path id="a_2_1" stroke="none" fill="rgb(83, 83, 83)" d="M 409,1 C 409,1 368.48,72 340.4,121.08 L 339.49,122.68 350,141 357,141 C 372.18,114.52 400.01,66.29 407.57,53.18 L 423,26 409,1 Z M 409,1" />
            </g>
        </g>
    </g>
    <g id="alex">
        <g id="x">
            <clipPath id="mask_x1">
                <path id="x2_m" stroke="none" fill="rgb(255, 255, 255)" d="M 316.81,89.8 L 303.83,67.32 C 303.83,67.32 296.4,54.75 293,48.95 L 267.2,48.95 C 275.2,62.95 290.83,89.78 290.83,89.78 L 303.83,112.25 C 303.83,112.25 315.7,132.05 320.8,140.95 L 338.8,140.95 346,141 C 338.3,127.9 316.81,89.8 316.81,89.8 Z M 316.81,89.8" />
            </clipPath>
            <g id="x_1_1" clip-path="url(#mask_x1)">
                <path id="x2_1" stroke="none" fill="rgb(83, 83, 83)" d="M 316.81,89.8 L 303.83,67.32 C 303.83,67.32 296.4,54.75 293,48.95 L 267.2,48.95 C 275.2,62.95 290.83,89.78 290.83,89.78 L 303.83,112.25 C 303.83,112.25 315.7,132.05 320.8,140.95 L 338.8,140.95 346,141 C 338.3,127.9 316.81,89.8 316.81,89.8 Z M 316.81,89.8" />
            </g>

            <mask id="mask_x2">
                <path id="x1_m" stroke="none" fill="rgb(255, 255, 255)" d="M 316.81,89.8 C 316.81,89.8 342.7,44.85 356.1,21.75 L 330.2,21.75 C 321.2,36.85 303.83,67.32 303.83,67.32 L 290.83,89.78 C 290.83,89.78 262.2,140.25 247.7,165.85 L 273.2,165.85 C 283.2,148.65 303.83,112.25 303.83,112.25 L 316.81,89.8 Z M 316.81,89.8" />
            </mask>
            <g id="x_1_2" mask='url(#mask_x2)'>
                <path id="x1_1" stroke="none" fill="rgb(83, 83, 83)" d="M 316.81,89.8 C 316.81,89.8 342.7,44.85 356.1,21.75 L 330.2,21.75 C 321.2,36.85 303.83,67.32 303.83,67.32 L 290.83,89.78 C 290.83,89.78 262.2,140.25 247.7,165.85 L 273.2,165.85 C 283.2,148.65 303.83,112.25 303.83,112.25 L 316.81,89.8 Z M 316.81,89.8" />
            </g>
        </g>
        <g id="e">
            <mask id="mask_e1_1">
                <path id="e1_m" stroke="none" fill="rgb(255, 255, 255)" d="M 222.92,105.96 C 222.33,107.02 220.6,110.94 220,112 L 208,94 C 208.44,93.2 210.7,89.94 211.13,89.17 214.76,82.57 217.95,76.74 221.37,70.6 L 176,71 C 176.22,71.37 164,51 164,51 L 254.07,50.6 C 243.59,70.07 233.37,87.57 222.92,105.96 Z M 222.92,105.96" />
            </mask>
            <mask id="mask_e1_2">
                <path id="e2_m" stroke="none" fill="rgb(255, 255, 255)" d="M 255.17,92.6 C 248.17,105.6 241.07,117.2 233.37,130.5 228.97,123 221.47,110.3 221.47,110.3 L 186,51 164.97,50.6 C 187.87,90.6 210.37,128.8 233.37,168.3 248.07,142.6 262.53,118.6 277.03,92.6 L 255.17,92.6 Z M 255.17,92.6" />
            </mask>
            <g id="e_1_2" mask='url(#mask_e1_2)'>
                <path id="e2_2" stroke="none" fill="rgb(83, 83, 83)" d="M 255.17,92.6 C 248.17,105.6 230,135 230,135 L 230,174 C 230,174 263.5,119 278,93 L 255.17,92.6 Z M 255.17,92.6" />
                <path id="e2_1" stroke="none" fill="rgb(83, 83, 83)" d="M 233.37,130.5 L 221.47,110.3 197,69 163,49 C 185.9,89 233.37,168.3 233.37,168.3 L 233.37,130.5 Z M 233.37,130.5" />
            </g>
            <g id="e_1_1" mask='url(#mask_e1_1)'>
                <path id="e1_1" stroke="none" fill="rgb(83, 83, 83)" d="M 219,114 L 255.83,50.17 232.68,50.3 208,94 219,114 Z M 219,114" />
                <path id="e1_2" stroke="none" fill="rgb(83, 83, 83)" d="M 221,71 C 221,71 197.82,70.69 198,71 L 163,50 256,50 221,71 Z M 221,71" />
            </g>
        </g>
        <g id="l">
            <mask id="mask_l1">
                <path id="l1_m" stroke="none" fill="rgb(255, 255, 255)" d="M 109.15,22.75 C 131.95,62.55 154.35,101.95 176.65,140.95 185.55,140.95 193.85,140.95 202.85,140.95 180.05,101.15 157.65,61.75 135.35,22.75 126.45,22.75 118.25,22.75 109.15,22.75 Z M 109.15,22.75" />
            </mask>
            <g id="l1" mask='url(#mask_l1)'>
                <path id="l1_1" stroke="none" fill="rgb(83, 83, 83)" d="M 109.15,22.75 C 131.95,62.55 154.35,101.95 176.65,140.95 185.55,140.95 193.85,140.95 202.85,140.95 180.05,101.15 157.65,61.75 135.35,22.75 126.45,22.75 118.25,22.75 109.15,22.75 Z M 109.15,22.75" />
            </g>
        </g>
        <g id="a">
            <mask id="mask_a1">
                <path id="a1_m" stroke="none" fill="rgb(255, 255, 255)" d="M 68.48,118.42 C 64.18,125.62 59.2,133.5 54.8,140.9 L 161.8,140.9 C 134.8,94.3 108.2,48.5 81.1,1.7 54.2,48.6 27.8,94.6 1.1,141.2 L 28.3,141.2 C 45.9,110.5 63.15,80.83 81.45,48.93 95.65,73.43 108.13,94.49 122.03,118.39 103.03,118.39 86.48,118.42 68.48,118.42 Z M 68.48,118.42" />
            </mask>
            <g id="a1" mask='url(#mask_a1)'>
                <path id="a1_1" stroke="none" fill="rgb(83, 83, 83)" d="M 81.1,1.7 C 81.1,1.7 27.8,94.6 1.1,141.2 L 28.3,141.2 C 42.9,115.73 69.86,69 78.62,53.83 80.42,50.71 95,25 95,25 L 81.1,1.7 Z M 81.1,1.7" />
                <path id="a1_2" stroke="none" fill="rgb(83, 83, 83)" d="M 161.8,140.9 C 134.8,94.3 81,1 81,1 L 81,48 135,141 161.8,140.9 Z M 161.8,140.9" />
                <path id="a1_3" stroke="none" fill="rgb(83, 83, 83)" d="M 68,118 C 63.7,125.2 59.2,133.5 54.8,140.9 L 163,141 124,118 C 124,118 86,118 68,118 Z M 68,118" />
            </g>
        </g>
    </g>
    </g>


</svg>
